X:1
T:Længsel mod det Evige
T:Længsel mod det Evige
T:Alle vegne, hvor jeg vanker
T:Andreas Peter Berggreen
T:J. Scheffler / H. A. Brorson 1739
C:A. P. Berggreen
Z:J. Scheffler
%%score [ 1 2 3 4 ]
L:1/8
M:4/4
K:E
V:1 treble-8 nm="T1"
V:2 treble-8 nm="T2"
V:3 bass nm="B1"
V:4 bass nm="B2"
V:1
!mf! B A | G2 G2 A2 c2 | c4 B2 e d |!<(! c2 c2!<)! f2 e2 |!>(! e4!>)! d2 c B | B2 G2 c2 B2 | %6
w: Al- le|veg- ne, hvor jeg|van- ker, jeg min|Je- sus har i|tan- ker, hvor jeg|lig- ger, sid- der,|
w: Bort fra|ver- dens land at|i- le, mæt af|mø- je, hjem til|hvi- le, jeg er|rej- se- fær- dig|
w: Når jeg|med ham skal re-|ge- re, i det|hø- je tri- um-|fe- re, o, hvor|vil jeg væ- re|
 A4 z2 B!<(! A | G2!<)! e2 e2 d2 | e4 z2 |] %9
w: går, ef- ter|ham min læng- sel|står.|
w: til, når min|sø- de Je- sus|vil.|
w: glad i den|gyld- ne eng- le-|stad!|
V:2
!mf! G F | E2 E2 E2 A2 | A4 G2 B B |!<(! A2 A2!<)! c2 c2 |!>(! B4!>)! B2 A A | G2 G2 G2 G2 | %6
w: Al- le|veg- ne, hvor jeg|van- ker, jeg min|Je- sus har i|tan- ker, hvor jeg|lig- ger, sid- der,|
w: Bort fra|ver- dens land at|i- le, mæt af|mø- je, hjem til|hvi- le, jeg er|rej- se- fær- dig|
w: Når jeg|med ham skal re-|ge- re, i det|hø- je tri- um-|fe- re, o, hvor|vil jeg væ- re|
 A4 z2 F!<(! F | G2!<)! c2 c2 B2 | B4 z2 |] %9
w: går, ef- ter|ham min læng- sel|står.|
w: til, når min|sø- de Je- sus|vil.|
w: glad i den|gyld- ne eng- le-|stad!|
V:3
!mf! E, E, | E,2 E,2 E,2 E,2 | E,4 E,2 E, E, |!<(! E,2 E,2!<)! F,2 F,2 |!>(! F,4!>)! F,2 F, F, | %5
w: Al- le|veg- ne, hvor jeg|van- ker, jeg min|Je- sus har i|tan- ker, hvor jeg|
w: Bort fra|ver- dens land at|i- le, mæt af|mø- je, hjem til|hvi- le, jeg er|
w: Når jeg|med ham skal re-|ge- re, i det|hø- je tri- um-|fe- re, o, hvor|
 E,2 E,2 ^E,2 E,2 | F,4 z2 F,!<(! F, | E,2!<)! G,2 F,2 F,2 | G,4 z2 |] %9
w: lig- ger, sid- der,|går, ef- ter|ham min læng- sel|står.|
w: rej- se- fær- dig|til, når min|sø- de Je- sus|vil.|
w: vil jeg væ- re|glad i den|gyld- ne eng- le-|stad!|
V:4
!mf! E, E, | E,2 E,2 C,2 A,,2 | E,4 E,2 G,, G,, |!<(! A,,2 A,,2!<)! ^A,,2 A,,2 | %4
w: Al- le|veg- ne, hvor jeg|van- ker, jeg min|Je- sus har i|
w: Bort fra|ver- dens land at|i- le, mæt af|mø- je, hjem til|
w: Når jeg|med ham skal re-|ge- re, i det|hø- je tri- um-|
!>(! B,,4!>)! B,,2 D, D, | E,2 =D,2 C,2 C,2 | F,4 z2 D,!<(! D, | E,2!<)! C,2 A,,2 B,,2 | E,4 z2 |] %9
w: tan- ker, hvor jeg|lig- ger, sid- der,|går, ef- ter|ham min læng- sel|står.|
w: hvi- le, jeg er|rej- se- fær- dig|til, når min|sø- de Je- sus|vil.|
w: fe- re, o, hvor|vil jeg væ- re|glad i den|gyld- ne eng- le-|stad!|

